build/images/icon-basket.svg

<svg xmlns="http://www.w3.org/2000/svg" viewBox="0 0 70 90"><g data-name="Слой 2"><path d="M35 0a15 15 0 00-15 15v5H2.5A2.5 2.5 0 000 22.5v65A2.5 2.5 0 002.5 90h65a2.5 2.5 0 002.5-2.5v-65a2.5 2.5 0 00-2.5-2.5H50v-5A15 15 0 0035 0zM25 15a10 10 0 0120 0v5H25zm40 10v60H5V25h15v7.5a2.5 2.5 0 005 0V25h20v7.5a2.5 2.5 0 005 0V25z" data-name="Слой 1"/></g></svg>

<svg xmlns="http://www.w3.org/2000/svg" viewBox="0 0 70 90"><title>basket</title><g id="Слой_2" data-name="Слой 2"><g id="Слой_1-2" data-name="Слой 1"><path d="M35,0A15,15,0,0,0,20,15v5H2.5A2.5,2.5,0,0,0,0,22.5v65A2.5,2.5,0,0,0,2.5,90h65A2.5,2.5,0,0,0,70,87.5v-65A2.5,2.5,0,0,0,67.5,20H50V15A15,15,0,0,0,35,0ZM25,15a10,10,0,0,1,20,0v5H25ZM65,25V85H5V25H20v7.5a2.5,2.5,0,0,0,5,0V25H45v7.5a2.5,2.5,0,0,0,5,0V25Z"/></g></g></svg>
